X:1
T:Title
%%score { ( 1 3 ) | ( 2 4 ) }
L:1/8
Q:1/4=95
M:6/8
K:E
V:1 treble nm="Grand Piano"
V:3 treble 
V:2 bass 
V:4 bass 
V:1
 G<GG G2 [FA] | [GB]3 [Ge]2 d | c2 e [Ed]2 [Ec] |[M:5/8] B-B- B3 |[M:1/8] A |[M:3/4] G2 G G2 [FA] | %6
w: Chas.~H.~Gabriel * * * *||||||
 [GB]3 G2 B | c2 B A2 G |[M:5/8] [DF]-[DF]- [DF]3 |[M:1/8] [FA] |[M:3/4] G2 G G2 [FA] | %11
w: |||||
 [GB]3 [Ge]2 d | c2 e [Ed]2 [Ec] |[M:5/8] B-B- B3 |[M:1/8] B |[M:3/4] c2 e d2 c | %16
w: |||||
[M:7/8] B3 E3 [EF] |[M:3/4] [EG] [EB]2 [DF]2 [B,B] | [B,E]6 | [Ge]<[Ge] [Ge] [Ge]2 [Ge] | %20
w: ||||
 [Ge]3 [G,E]2 [G,E] | [^A,EG]2 [A,EG] [A,EF]2 [F,E] |[M:5/8] B-B- B3 |[M:1/8] B | %24
w: ||||
[M:3/4] e2 B A2 G |[M:7/8] [CF]3 [Ec]3 [Ec] | %26
w: ||
[M:3/4] z2 z2 B2[Q:1/4=92][Q:1/4=89][Q:1/4=86][Q:1/4=83][Q:1/4=80][Q:1/4=77][Q:1/4=74] | E6 |] %28
w: ||
V:2
 [E,B,E]<[E,B,E][E,B,E] [E,B,E]2 [E,B,] | [E,E]3 [E,B,]2 [E,G,E] | [A,E]2 [A,CE] [A,,B,]2 [A,,A,] | %3
[M:5/8] [E,G,E]-[E,G,E]- [E,G,E]3 |[M:1/8] [E,CE] |[M:3/4] [E,B,E]2 [E,B,E] [E,B,E]2 [E,B,] | %6
 [E,E]3 [E,B,E]2 [G,B,E] | [A,E]2 [G,B,E] [F,B,D]2 [E,B,E] |[M:5/8] [B,,B,]-[B,,B,]- [B,,B,]3 | %9
[M:1/8] [B,,B,] |[M:3/4] [E,B,E]2 [E,B,E] [E,B,E]2 [E,B,] | [E,E]3 [E,B,]2 [E,G,E] | %12
 [A,E]2 [A,CE] [A,,B,]2 [A,,A,] |[M:5/8] [E,G,E]-[E,G,E]- [E,G,E]3 |[M:1/8] [E,G,E] | %15
[M:3/4] [A,E]2 [A,CE] [A,B,E]2 [A,E] |[M:7/8] [E,G,E]3 [C,^A,]3 [^B,,A,] | %17
[M:3/4] [B,,B,] [B,,G,]2 [B,,A,]2 [B,,A,] | [E,G,]6 | [E,B,]<[E,B,] [E,B,] [E,B,]2 [E,B,] | %20
 [C,C]3 C,2 C, | F,,2 F,, F,,2 C, |[M:5/8] F,2 z z2 |[M:1/8][K:treble] [A,B,F] | %24
[M:3/4] [G,B,E]2 [G,B,E] [G,B,D]2 [G,B,E] |[M:7/8][K:bass] A,,3 [^A,,=G,]3 [A,,G,] | %26
[M:3/4] [B,,G,]2 [B,,G,][B,,A,] [B,,A,]2 | [E,G,B,]6 |] %28
V:3
 x6 | x6 | x6 |[M:5/8] x5 |[M:1/8] x |[M:3/4] x6 | x6 | x6 |[M:5/8] x5 |[M:1/8] x |[M:3/4] x6 | %11
 x6 | x6 |[M:5/8] x5 |[M:1/8] x |[M:3/4] x6 |[M:7/8] x7 |[M:3/4] x6 | x6 | x6 | x6 | x6 | %22
[M:5/8] D2 E F2 |[M:1/8] x |[M:3/4] x6 |[M:7/8] x7 |[M:3/4] [EB]2 E[DF] DC | x6 |] %28
V:4
 x6 | x6 | x6 |[M:5/8] x5 |[M:1/8] x |[M:3/4] x6 | x6 | x6 |[M:5/8] x5 |[M:1/8] x |[M:3/4] x6 | %11
 x6 | x6 |[M:5/8] x5 |[M:1/8] x |[M:3/4] x6 |[M:7/8] x7 |[M:3/4] x6 | x6 | x6 | x6 | x6 | %22
[M:5/8] B,,2- [B,,-G,] [B,,A,]2 |[M:1/8][K:treble] x |[M:3/4] x6 |[M:7/8][K:bass] x7 |[M:3/4] x6 | %27
 x6 |] %28

